resources/verdaccio-color.svg

<svg width="100" height="100" viewBox="0 0 100 100" fill="none" xmlns="http://www.w3.org/2000/svg">
<rect width="100" height="100" rx="37" fill="white"/>
<g filter="url(#filter0_d_0_18)">
<mask id="path-2-inside-1_0_18" fill="white">
<path fill-rule="evenodd" clip-rule="evenodd" d="M69 46.6L53.8 77H45L21.4 29.8L36.6 29.8L49.4 55.4L53.8 46.6H69Z"/>
</mask>
<path fill-rule="evenodd" clip-rule="evenodd" d="M69 46.6L53.8 77H45L21.4 29.8L36.6 29.8L49.4 55.4L53.8 46.6H69Z" fill="#005EB8"/>
<path d="M69 46.6L71.1466 47.6733L72.8833 44.2H69V46.6ZM53.8 77V79.4H55.2833L55.9466 78.0733L53.8 77ZM45 77L42.8534 78.0733L43.5167 79.4H45V77ZM21.4 29.8V27.4H17.5167L19.2534 30.8733L21.4 29.8ZM36.6 29.8L38.7466 28.7267L38.0833 27.4H36.6V29.8ZM49.4 55.4L47.2534 56.4733L49.4 60.7666L51.5466 56.4733L49.4 55.4ZM53.8 46.6V44.2H52.3167L51.6534 45.5267L53.8 46.6ZM66.8534 45.5267L51.6534 75.9267L55.9466 78.0733L71.1466 47.6733L66.8534 45.5267ZM53.8 74.6H45V79.4H53.8V74.6ZM47.1466 75.9267L23.5466 28.7267L19.2534 30.8733L42.8534 78.0733L47.1466 75.9267ZM21.4 32.2L36.6 32.2V27.4L21.4 27.4V32.2ZM34.4534 30.8733L47.2534 56.4733L51.5466 54.3267L38.7466 28.7267L34.4534 30.8733ZM51.5466 56.4733L55.9466 47.6733L51.6534 45.5267L47.2534 54.3267L51.5466 56.4733ZM53.8 49H69V44.2H53.8V49Z" fill="#005EB8" mask="url(#path-2-inside-1_0_18)"/>
</g>
<g filter="url(#filter1_d_0_18)">
<path fill-rule="evenodd" clip-rule="evenodd" d="M71.8 41H56.6L62.2 29.8L77.4 29.8L71.8 41V41Z" fill="#005EB8"/>
<path d="M62.9416 31H75.4584L71.0584 39.8H58.5416L62.9416 31Z" stroke="#005EB8" stroke-width="2.4"/>
</g>
<path d="M55.6351 70.688L53.0607 75.8H45.7416L23.3416 31H35.8573L55.6351 70.688Z" fill="#FFD101" stroke="#FFD101" stroke-width="2.4"/>
<path d="M58.6 31H73.821" stroke="#005EB8" stroke-width="2.4" stroke-linecap="square"/>
<path d="M54.6 35H69.821" stroke="#005EB8" stroke-width="2.4" stroke-linecap="square"/>
<path d="M50.6 39.8H65.821" stroke="#005EB8" stroke-width="2.4" stroke-linecap="square"/>
<defs>
<filter id="filter0_d_0_18" x="16.4" y="28.8" width="57.6" height="57.2" filterUnits="userSpaceOnUse" color-interpolation-filters="sRGB">
<feFlood flood-opacity="0" result="BackgroundImageFix"/>
<feColorMatrix in="SourceAlpha" type="matrix" values="0 0 0 0 0 0 0 0 0 0 0 0 0 0 0 0 0 0 127 0" result="hardAlpha"/>
<feOffset dy="4"/>
<feGaussianBlur stdDeviation="2.5"/>
<feColorMatrix type="matrix" values="0 0 0 0 0 0 0 0 0 0 0 0 0 0 0 0 0 0 0.0906646 0"/>
<feBlend mode="normal" in2="BackgroundImageFix" result="effect1_dropShadow_0_18"/>
<feBlend mode="normal" in="SourceGraphic" in2="effect1_dropShadow_0_18" result="shape"/>
</filter>
<filter id="filter1_d_0_18" x="51.6" y="28.8" width="30.8" height="21.2" filterUnits="userSpaceOnUse" color-interpolation-filters="sRGB">
<feFlood flood-opacity="0" result="BackgroundImageFix"/>
<feColorMatrix in="SourceAlpha" type="matrix" values="0 0 0 0 0 0 0 0 0 0 0 0 0 0 0 0 0 0 127 0" result="hardAlpha"/>
<feOffset dy="4"/>
<feGaussianBlur stdDeviation="2.5"/>
<feColorMatrix type="matrix" values="0 0 0 0 0 0 0 0 0 0 0 0 0 0 0 0 0 0 0.0906646 0"/>
<feBlend mode="normal" in2="BackgroundImageFix" result="effect1_dropShadow_0_18"/>
<feBlend mode="normal" in="SourceGraphic" in2="effect1_dropShadow_0_18" result="shape"/>
</filter>
</defs>
</svg>

<?xml version="1.0" encoding="UTF-8"?>
<svg id="Layer_1" data-name="Layer 1" xmlns="http://www.w3.org/2000/svg" xmlns:xlink="http://www.w3.org/1999/xlink" viewBox="0 0 100 100">
  <defs>
    <style>
      .cls-1 {
        mask: url(#mask);
      }

      .cls-2, .cls-3 {
        fill: #fff;
      }

      .cls-2, .cls-4 {
        fill-rule: evenodd;
      }

      .cls-5 {
        font-family: MyriadPro-Regular, 'Myriad Pro';
        font-size: 12px;
      }

      .cls-6, .cls-4 {
        fill: #005eb8;
      }

      .cls-7, .cls-8, .cls-9 {
        stroke-width: 2.4px;
      }

      .cls-7, .cls-9 {
        fill: none;
        stroke: #005eb8;
      }

      .cls-8 {
        fill: #ffd101;
        stroke: #ffd101;
      }

      .cls-10 {
        letter-spacing: -.01em;
      }

      .cls-9 {
        stroke-linecap: square;
      }
    </style>
    <mask id="mask" x="17.52" y="27.4" width="55.37" height="52" maskUnits="userSpaceOnUse">
      <g id="path-2-inside-1_0_18" data-name="path-2-inside-1 0 18">
        <path class="cls-2" d="M69,46.6l-15.2,30.4h-8.8L21.4,29.8h15.2l12.8,25.6,4.4-8.8h15.2Z"/>
      </g>
    </mask>
  </defs>
  <rect class="cls-3" width="100" height="100" rx="37" ry="37"/>
  <g>
    <path class="cls-4" d="M69,46.6l-15.2,30.4h-8.8L21.4,29.8h15.2l12.8,25.6,4.4-8.8h15.2Z"/>
    <g class="cls-1">
      <path class="cls-6" d="M69,46.6l2.15,1.07,1.74-3.47h-3.88v2.4ZM53.8,77v2.4h1.48l.66-1.33-2.15-1.07ZM45,77l-2.15,1.07.66,1.33h1.48v-2.4ZM21.4,29.8v-2.4h-3.88l1.74,3.47,2.15-1.07ZM36.6,29.8l2.15-1.07-.66-1.33h-1.48v2.4ZM49.4,55.4l-2.15,1.07,2.15,4.29,2.15-4.29-2.15-1.07ZM53.8,46.6v-2.4h-1.48l-.66,1.33,2.15,1.07ZM66.85,45.53l-15.2,30.4,4.29,2.15,15.2-30.4-4.29-2.15ZM53.8,74.6h-8.8v4.8h8.8v-4.8ZM47.15,75.93L23.55,28.73l-4.29,2.15,23.6,47.2,4.29-2.15ZM21.4,32.2h15.2v-4.8h-15.2v4.8ZM34.45,30.87l12.8,25.6,4.29-2.15-12.8-25.6-4.29,2.15ZM51.55,56.47l4.4-8.8-4.29-2.15-4.4,8.8,4.29,2.15ZM53.8,49h15.2v-4.8h-15.2v4.8Z"/>
    </g>
  </g>
  <g>
    <path class="cls-4" d="M71.8,41h-15.2l5.6-11.2h15.2l-5.6,11.2h0Z"/>
    <path class="cls-7" d="M62.94,31h12.52l-4.4,8.8h-12.52l4.4-8.8Z"/>
  </g>
  <path class="cls-8" d="M55.64,70.69l-2.57,5.11h-7.32L23.34,31h12.52l19.78,39.69Z"/>
  <path class="cls-9" d="M58.6,31h15.22"/>
  <path class="cls-9" d="M54.6,35h15.22"/>
  <path class="cls-9" d="M50.6,39.8h15.22"/>
  <text class="cls-5" transform="translate(58.6 28.6)"><tspan class="cls-10" x="0" y="0">A</tspan><tspan x="7.16" y="0">CS</tspan></text>
  <text class="cls-5" transform="translate(20.18 28.73)"><tspan x="0" y="0">MCP</tspan></text>
</svg>
